Numix/64/emotes/face-embarassed.svg

<?xml version="1.0" encoding="UTF-8" standalone="no"?>
<svg
   xmlns:dc="http://purl.org/dc/elements/1.1/"
   xmlns:cc="http://creativecommons.org/ns#"
   xmlns:rdf="http://www.w3.org/1999/02/22-rdf-syntax-ns#"
   xmlns:svg="http://www.w3.org/2000/svg"
   xmlns="http://www.w3.org/2000/svg"
   xmlns:sodipodi="http://sodipodi.sourceforge.net/DTD/sodipodi-0.dtd"
   xmlns:inkscape="http://www.inkscape.org/namespaces/inkscape"
   width="64px"
   height="64px"
   viewBox="0 0 48 48"
   version="1.1"
   id="svg160"
   inkscape:version="0.91 r"
   sodipodi:docname="face-embarassed.svg">
  <metadata
     id="metadata189">
    <rdf:RDF>
      <cc:Work
         rdf:about="">
        <dc:format>image/svg+xml</dc:format>
        <dc:type
           rdf:resource="http://purl.org/dc/dcmitype/StillImage" />
      </cc:Work>
    </rdf:RDF>
  </metadata>
  <sodipodi:namedview
     pagecolor="#ffffff"
     bordercolor="#666666"
     borderopacity="1"
     objecttolerance="10"
     gridtolerance="10"
     guidetolerance="10"
     inkscape:pageopacity="0"
     inkscape:pageshadow="2"
     inkscape:window-width="640"
     inkscape:window-height="480"
     id="namedview187" />
  <defs
     id="defs162">
    <radialGradient
       id="radial0"
       gradientUnits="userSpaceOnUse"
       cx="15"
       cy="28"
       fx="15"
       fy="28"
       r="2"
       gradientTransform="matrix(2,0,0,2,-15,-28)">
      <stop
         offset="0"
         style="stop-color:rgb(100%,21.176471%,21.176471%);stop-opacity:1;"
         id="stop165" />
      <stop
         offset="1"
         style="stop-color:rgb(100%,85.490196%,36.862745%);stop-opacity:1;"
         id="stop167" />
    </radialGradient>
    <radialGradient
       id="radial1"
       gradientUnits="userSpaceOnUse"
       cx="24"
       cy="28"
       fx="24"
       fy="28"
       r="2"
       gradientTransform="matrix(2,0,0,2,-15,-28)">
      <stop
         offset="0"
         style="stop-color:rgb(100%,21.176471%,21.176471%);stop-opacity:1;"
         id="stop170" />
      <stop
         offset="1"
         style="stop-color:rgb(100%,85.490196%,36.862745%);stop-opacity:1;"
         id="stop172" />
    </radialGradient>
  </defs>
  <g
     id="surface1">
    <path
       style=" stroke:none;fill-rule:nonzero;fill:rgb(100%,85.490196%,36.862745%);fill-opacity:1;"
       d="M 42 24 C 42 32.5625 33.941406 39.5 24 39.5 C 14.058594 39.5 6 32.5625 6 24 C 6 15.441406 14.058594 8.5 24 8.5 C 33.941406 8.5 42 15.441406 42 24 Z M 42 24 "
       id="path175" />
    <path
       style=" stroke:none;fill-rule:nonzero;fill:rgb(39.607843%,39.607843%,39.607843%);fill-opacity:1;"
       d="M 20.5 20.5 C 20.5 21.878906 19.378906 23 18 23 C 16.621094 23 15.5 21.878906 15.5 20.5 C 15.5 19.121094 16.621094 18 18 18 C 19.378906 18 20.5 19.121094 20.5 20.5 Z M 20.5 20.5 "
       id="path177" />
    <path
       style=" stroke:none;fill-rule:nonzero;fill:rgb(39.607843%,39.607843%,39.607843%);fill-opacity:1;"
       d="M 32.5 20.5 C 32.5 21.878906 31.378906 23 30 23 C 28.621094 23 27.5 21.878906 27.5 20.5 C 27.5 19.121094 28.621094 18 30 18 C 31.378906 18 32.5 19.121094 32.5 20.5 Z M 32.5 20.5 "
       id="path179" />
    <path
       style=" stroke:none;fill-rule:nonzero;fill:rgb(39.607843%,39.607843%,39.607843%);fill-opacity:1;"
       d="M 26 31 C 26 32.105469 25.105469 33 24 33 C 22.894531 33 22 32.105469 22 31 C 22 29.894531 22.894531 29 24 29 C 25.105469 29 26 29.894531 26 31 Z M 26 31 "
       id="path181" />
    <path
       style=" stroke:none;fill-rule:nonzero;fill:url(#radial0);"
       d="M 19 28 C 19 30.210938 17.210938 32 15 32 C 12.789062 32 11 30.210938 11 28 C 11 25.789062 12.789062 24 15 24 C 17.210938 24 19 25.789062 19 28 Z M 19 28 "
       id="path183" />
    <path
       style=" stroke:none;fill-rule:nonzero;fill:url(#radial1);"
       d="M 37 28 C 37 30.210938 35.210938 32 33 32 C 30.789062 32 29 30.210938 29 28 C 29 25.789062 30.789062 24 33 24 C 35.210938 24 37 25.789062 37 28 Z M 37 28 "
       id="path185" />
  </g>
</svg>

<svg xmlns="http://www.w3.org/2000/svg" width="64" height="64" viewBox="0 0 48 48" xmlns:xlink="http://www.w3.org/1999/xlink">
 <defs>
  <radialGradient id="radial0" gradientUnits="userSpaceOnUse" cx="15" cy="28" r="2" gradientTransform="matrix(2,0,0,2,-15,-28)">
   <stop style="stop-color:#ff3636;stop-opacity:1"/>
   <stop offset="1" style="stop-color:#ffd95d;stop-opacity:1"/>
  </radialGradient>
  <radialGradient id="radial1" gradientUnits="userSpaceOnUse" cx="24" cy="28" r="2" gradientTransform="matrix(2,0,0,2,-15,-28)" xlink:href="#radial0"/>
 </defs>
 <g>
  <path d="m 42 24 c 0 8.563 -8.06 15.5 -18 15.5 c -9.941 0 -18 -6.938 -18 -15.5 c 0 -8.559 8.06 -15.5 18 -15.5 c 9.941 0 18 6.941 18 15.5 m 0 0" style="fill:#ffd95d;fill-opacity:1;stroke:none;fill-rule:nonzero"/>
  <path d="m 20.5 20.5 c 0 1.379 -1.121 2.5 -2.5 2.5 c -1.379 0 -2.5 -1.121 -2.5 -2.5 c 0 -1.379 1.121 -2.5 2.5 -2.5 c 1.379 0 2.5 1.121 2.5 2.5 m 0 0" style="fill:#646464;fill-opacity:1;stroke:none;fill-rule:nonzero"/>
  <path d="m 32.5 20.5 c 0 1.379 -1.121 2.5 -2.5 2.5 c -1.379 0 -2.5 -1.121 -2.5 -2.5 c 0 -1.379 1.121 -2.5 2.5 -2.5 c 1.379 0 2.5 1.121 2.5 2.5 m 0 0" style="fill:#646464;fill-opacity:1;stroke:none;fill-rule:nonzero"/>
  <path d="m 26 31 c 0 1.105 -0.895 2 -2 2 c -1.105 0 -2 -0.895 -2 -2 c 0 -1.105 0.895 -2 2 -2 c 1.105 0 2 0.895 2 2 m 0 0" style="fill:#646464;fill-opacity:1;stroke:none;fill-rule:nonzero"/>
  <path d="m 19 28 c 0 2.211 -1.789 4 -4 4 c -2.211 0 -4 -1.789 -4 -4 c 0 -2.211 1.789 -4 4 -4 c 2.211 0 4 1.789 4 4 m 0 0" style="fill:url(#radial0);stroke:none;fill-rule:nonzero"/>
  <path d="m 37 28 c 0 2.211 -1.789 4 -4 4 c -2.211 0 -4 -1.789 -4 -4 c 0 -2.211 1.789 -4 4 -4 c 2.211 0 4 1.789 4 4 m 0 0" style="fill:url(#radial1);stroke:none;fill-rule:nonzero"/>
 </g>
</svg>
